badges/spotify-dark.svg

<svg width="106" height="40" viewBox="0 0 106 40" fill="none" xmlns="http://www.w3.org/2000/svg">
<rect x="0.5" y="0.5" width="105" height="39" rx="4.5" fill="black"/>
<path fill-rule="evenodd" clip-rule="evenodd" d="M10.5247 29.4753C8.68315 27.6337 8 24.6337 8 20C8 15.3663 8.68315 12.3662 10.5247 10.5247C12.3662 8.68315 15.3663 8 20 8C24.6337 8 27.6337 8.68315 29.4753 10.5247C31.3168 12.3662 32 15.3663 32 20C32 24.6337 31.3168 27.6337 29.4753 29.4753C27.6337 31.3168 24.6337 32 20 32C15.3663 32 12.3662 31.3168 10.5247 29.4753Z" fill="#181413"/>
<path fill-rule="evenodd" clip-rule="evenodd" d="M20 29.5C25.2467 29.5 29.5 25.2467 29.5 20C29.5 14.7533 25.2467 10.5 20 10.5C14.7533 10.5 10.5 14.7533 10.5 20C10.5 25.2467 14.7533 29.5 20 29.5Z" fill="#1ED760"/>
<path fill-rule="evenodd" clip-rule="evenodd" d="M14.9333 22.3286C18.5027 21.513 21.627 21.8398 24.1605 23.3881C24.4397 23.5588 24.5277 23.9234 24.3571 24.2027C24.1865 24.4819 23.8218 24.5699 23.5426 24.3993C21.3413 23.054 18.5535 22.7169 15.1973 23.4839C14.8783 23.5567 14.5606 23.3572 14.4877 23.0382C14.4148 22.7192 14.6143 22.4015 14.9333 22.3286Z" fill="#181413"/>
<path fill-rule="evenodd" clip-rule="evenodd" d="M14.6039 19.3355C18.0303 18.2956 22.3423 18.795 25.2754 20.5978C25.6236 20.8118 25.7324 21.2675 25.5184 21.6157C25.3044 21.9639 24.8487 22.0727 24.5005 21.8587C21.9484 20.2902 18.0781 19.8278 15.0337 20.7517C14.6426 20.8704 14.2294 20.6496 14.1107 20.2585C13.992 19.8675 14.2128 19.4542 14.6039 19.3355Z" fill="#181413"/>
<path fill-rule="evenodd" clip-rule="evenodd" d="M20.212 15.5902C22.4271 15.7676 24.7245 16.3252 26.5261 17.3948C26.9476 17.6451 27.0864 18.1896 26.8362 18.6111C26.5859 19.0325 26.0414 19.1713 25.62 18.9211C24.1278 18.0352 22.1209 17.5238 20.0703 17.3595C18.0223 17.1955 16.0239 17.385 14.5828 17.8225C14.1138 17.9649 13.6182 17.7002 13.4758 17.2312C13.3334 16.7621 13.5981 16.2665 14.0672 16.1241C15.7656 15.6085 17.9942 15.4125 20.212 15.5902Z" fill="#181413"/>
<path d="M39.7486 14.5V8.31818H40.4972V13.8359H43.3707V14.5H39.7486ZM44.4332 14.5V9.86364H45.1456V14.5H44.4332ZM44.7955 9.09091C44.6566 9.09091 44.5369 9.04362 44.4363 8.94904C44.3377 8.85446 44.2884 8.74077 44.2884 8.60795C44.2884 8.47514 44.3377 8.36145 44.4363 8.26687C44.5369 8.17229 44.6566 8.125 44.7955 8.125C44.9343 8.125 45.053 8.17229 45.1516 8.26687C45.2522 8.36145 45.3026 8.47514 45.3026 8.60795C45.3026 8.74077 45.2522 8.85446 45.1516 8.94904C45.053 9.04362 44.9343 9.09091 44.7955 9.09091ZM49.7344 10.902L49.0945 11.0831C49.0543 10.9764 48.9949 10.8728 48.9164 10.7722C48.8399 10.6696 48.7353 10.585 48.6025 10.5186C48.4697 10.4522 48.2996 10.419 48.0924 10.419C47.8086 10.419 47.5722 10.4844 47.383 10.6152C47.1959 10.744 47.1023 10.908 47.1023 11.1072C47.1023 11.2843 47.1667 11.4242 47.2955 11.5268C47.4243 11.6294 47.6255 11.715 47.8992 11.7834L48.5874 11.9524C49.0019 12.053 49.3108 12.207 49.5141 12.4142C49.7173 12.6195 49.8189 12.8841 49.8189 13.2081C49.8189 13.4737 49.7425 13.7112 49.5895 13.9205C49.4386 14.1297 49.2273 14.2947 48.9557 14.4155C48.684 14.5362 48.3681 14.5966 48.0079 14.5966C47.535 14.5966 47.1436 14.494 46.8337 14.2887C46.5238 14.0835 46.3276 13.7836 46.2451 13.3892L46.9212 13.2202C46.9856 13.4697 47.1073 13.6568 47.2864 13.7816C47.4676 13.9064 47.704 13.9688 47.9958 13.9688C48.3278 13.9688 48.5914 13.8983 48.7866 13.7575C48.9838 13.6146 49.0824 13.4435 49.0824 13.2443C49.0824 13.0833 49.0261 12.9485 48.9134 12.8398C48.8007 12.7292 48.6276 12.6467 48.3942 12.5923L47.6215 12.4112C47.1969 12.3106 46.885 12.1547 46.6858 11.9434C46.4886 11.7301 46.39 11.4634 46.39 11.1435C46.39 10.8819 46.4634 10.6504 46.6103 10.4492C46.7592 10.248 46.9615 10.09 47.217 9.97532C47.4746 9.86062 47.7664 9.80327 48.0924 9.80327C48.5512 9.80327 48.9114 9.90388 49.173 10.1051C49.4366 10.3063 49.6237 10.572 49.7344 10.902ZM52.9076 9.86364V10.4673H50.5049V9.86364H52.9076ZM51.2052 8.75284H51.9175V13.1719C51.9175 13.3731 51.9467 13.524 52.0051 13.6246C52.0654 13.7232 52.1419 13.7897 52.2345 13.8239C52.329 13.8561 52.4287 13.8722 52.5333 13.8722C52.6118 13.8722 52.6762 13.8681 52.7265 13.8601C52.7768 13.85 52.817 13.842 52.8472 13.8359L52.9921 14.4759C52.9438 14.494 52.8764 14.5121 52.7899 14.5302C52.7033 14.5503 52.5937 14.5604 52.4608 14.5604C52.2596 14.5604 52.0624 14.5171 51.8692 14.4306C51.6781 14.344 51.5191 14.2122 51.3923 14.0352C51.2675 13.8581 51.2052 13.6347 51.2052 13.3651V8.75284ZM55.8732 14.5966C55.4265 14.5966 55.0411 14.498 54.7172 14.3008C54.3952 14.1016 54.1467 13.8239 53.9716 13.4677C53.7985 13.1095 53.712 12.6929 53.712 12.218C53.712 11.7431 53.7985 11.3246 53.9716 10.9624C54.1467 10.5981 54.3902 10.3144 54.7021 10.1112C55.016 9.90589 55.3822 9.80327 55.8008 9.80327C56.0423 9.80327 56.2807 9.84351 56.5162 9.92401C56.7516 10.0045 56.9659 10.1353 57.1591 10.3164C57.3523 10.4955 57.5062 10.733 57.6209 11.0288C57.7356 11.3246 57.793 11.6888 57.793 12.1214V12.4233H54.2191V11.8075H57.0685C57.0685 11.5459 57.0162 11.3125 56.9116 11.1072C56.8089 10.902 56.6621 10.74 56.4709 10.6213C56.2817 10.5025 56.0584 10.4432 55.8008 10.4432C55.517 10.4432 55.2715 10.5136 55.0643 10.6545C54.859 10.7933 54.7011 10.9744 54.5904 11.1978C54.4797 11.4212 54.4244 11.6606 54.4244 11.9162V12.3267C54.4244 12.6768 54.4847 12.9737 54.6055 13.2172C54.7282 13.4586 54.8983 13.6428 55.1156 13.7695C55.3329 13.8943 55.5855 13.9567 55.8732 13.9567C56.0604 13.9567 56.2294 13.9305 56.3803 13.8782C56.5333 13.8239 56.6651 13.7434 56.7757 13.6367C56.8864 13.5281 56.9719 13.3932 57.0323 13.2322L57.7205 13.4254C57.6481 13.6589 57.5263 13.8641 57.3553 14.0412C57.1842 14.2163 56.973 14.3531 56.7214 14.4517C56.4699 14.5483 56.1871 14.5966 55.8732 14.5966ZM59.589 11.7109V14.5H58.8766V9.86364H59.5648V10.5881H59.6252C59.7338 10.3526 59.8989 10.1635 60.1202 10.0206C60.3416 9.87571 60.6273 9.80327 60.9775 9.80327C61.2914 9.80327 61.5661 9.86766 61.8015 9.99645C62.0369 10.1232 62.2201 10.3164 62.3509 10.576C62.4817 10.8336 62.5471 11.1596 62.5471 11.554V14.5H61.8347V11.6023C61.8347 11.238 61.7401 10.9543 61.551 10.7511C61.3618 10.5458 61.1022 10.4432 60.7722 10.4432C60.5448 10.4432 60.3416 10.4925 60.1625 10.5911C59.9854 10.6897 59.8455 10.8336 59.7429 11.0227C59.6403 11.2119 59.589 11.4413 59.589 11.7109ZM68.1229 14.5966C67.7044 14.5966 67.3371 14.497 67.0212 14.2978C66.7073 14.0985 66.4618 13.8198 66.2847 13.4616C66.1096 13.1035 66.0221 12.6849 66.0221 12.206C66.0221 11.723 66.1096 11.3014 66.2847 10.9412C66.4618 10.581 66.7073 10.3013 67.0212 10.1021C67.3371 9.90288 67.7044 9.80327 68.1229 9.80327C68.5415 9.80327 68.9077 9.90288 69.2216 10.1021C69.5376 10.3013 69.7831 10.581 69.9581 10.9412C70.1352 11.3014 70.2238 11.723 70.2238 12.206C70.2238 12.6849 70.1352 13.1035 69.9581 13.4616C69.7831 13.8198 69.5376 14.0985 69.2216 14.2978C68.9077 14.497 68.5415 14.5966 68.1229 14.5966ZM68.1229 13.9567C68.4409 13.9567 68.7025 13.8752 68.9077 13.7122C69.113 13.5492 69.2649 13.3349 69.3635 13.0692C69.4621 12.8036 69.5114 12.5159 69.5114 12.206C69.5114 11.8961 69.4621 11.6073 69.3635 11.3397C69.2649 11.072 69.113 10.8557 68.9077 10.6907C68.7025 10.5257 68.4409 10.4432 68.1229 10.4432C67.805 10.4432 67.5434 10.5257 67.3381 10.6907C67.1329 10.8557 66.9809 11.072 66.8823 11.3397C66.7837 11.6073 66.7344 11.8961 66.7344 12.206C66.7344 12.5159 66.7837 12.8036 66.8823 13.0692C66.9809 13.3349 67.1329 13.5492 67.3381 13.7122C67.5434 13.8752 67.805 13.9567 68.1229 13.9567ZM72.0235 11.7109V14.5H71.3112V9.86364H71.9994V10.5881H72.0597C72.1684 10.3526 72.3334 10.1635 72.5548 10.0206C72.7761 9.87571 73.0619 9.80327 73.412 9.80327C73.7259 9.80327 74.0006 9.86766 74.2361 9.99645C74.4715 10.1232 74.6546 10.3164 74.7854 10.576C74.9162 10.8336 74.9816 11.1596 74.9816 11.554V14.5H74.2693V11.6023C74.2693 11.238 74.1747 10.9543 73.9855 10.7511C73.7964 10.5458 73.5368 10.4432 73.2068 10.4432C72.9794 10.4432 72.7761 10.4925 72.597 10.5911C72.42 10.6897 72.2801 10.8336 72.1775 11.0227C72.0748 11.2119 72.0235 11.4413 72.0235 11.7109Z" fill="white"/>
<path d="M46.5014 20.9545C46.4268 20.3248 46.1244 19.8359 45.5941 19.4879C45.0638 19.1399 44.4134 18.9659 43.6428 18.9659C43.0793 18.9659 42.5863 19.0571 42.1637 19.2393C41.7453 19.4216 41.418 19.6723 41.1818 19.9913C40.9498 20.3103 40.8338 20.6728 40.8338 21.0788C40.8338 21.4186 40.9146 21.7106 41.0762 21.9551C41.2419 22.1954 41.4532 22.3963 41.71 22.5579C41.9669 22.7153 42.2362 22.8458 42.5179 22.9494C42.7997 23.0488 43.0586 23.1296 43.2947 23.1918L44.5874 23.5398C44.9188 23.6268 45.2875 23.7469 45.6935 23.9002C46.1037 24.0535 46.4952 24.2627 46.8681 24.5279C47.2451 24.7889 47.5558 25.1245 47.8002 25.5346C48.0447 25.9448 48.1669 26.4482 48.1669 27.0447C48.1669 27.7325 47.9867 28.3539 47.6262 28.9091C47.2699 29.4643 46.7479 29.9055 46.0602 30.2328C45.3766 30.5601 44.5459 30.7237 43.5682 30.7237C42.6567 30.7237 41.8675 30.5766 41.2005 30.2825C40.5376 29.9883 40.0156 29.5782 39.6344 29.052C39.2574 28.5259 39.044 27.9148 38.9943 27.2188H40.5852C40.6267 27.6993 40.7882 28.0971 41.07 28.4119C41.3558 28.7227 41.7163 28.9547 42.1513 29.108C42.5904 29.2571 43.0627 29.3317 43.5682 29.3317C44.1565 29.3317 44.6847 29.2364 45.1529 29.0458C45.621 28.8511 45.9918 28.5818 46.2653 28.2379C46.5387 27.8899 46.6754 27.4839 46.6754 27.0199C46.6754 26.5973 46.5574 26.2534 46.3212 25.9883C46.085 25.7231 45.7743 25.5077 45.389 25.342C45.0037 25.1763 44.5874 25.0312 44.1399 24.907L42.5739 24.4595C41.5795 24.1737 40.7924 23.7656 40.2124 23.2353C39.6323 22.705 39.3423 22.011 39.3423 21.1534C39.3423 20.4408 39.535 19.8194 39.9203 19.2891C40.3097 18.7546 40.8317 18.3403 41.4863 18.0462C42.1451 17.7479 42.8804 17.5987 43.6925 17.5987C44.5128 17.5987 45.242 17.7458 45.88 18.0399C46.518 18.33 47.0234 18.7277 47.3963 19.2331C47.7733 19.7386 47.9722 20.3124 47.9929 20.9545H46.5014ZM50.252 34.0795V20.9545H51.6689V22.4709H51.8429C51.9506 22.3052 52.0998 22.0939 52.2903 21.837C52.4851 21.576 52.7627 21.344 53.1231 21.141C53.4877 20.9338 53.9807 20.8303 54.6021 20.8303C55.4059 20.8303 56.1143 21.0312 56.7275 21.4331C57.3407 21.8349 57.8192 22.4046 58.163 23.142C58.5069 23.8795 58.6788 24.7495 58.6788 25.7521C58.6788 26.763 58.5069 27.6393 58.163 28.3809C57.8192 29.1183 57.3427 29.69 56.7337 30.0961C56.1247 30.4979 55.4225 30.6989 54.627 30.6989C54.0138 30.6989 53.5229 30.5974 53.1542 30.3944C52.7854 30.1872 52.5016 29.9531 52.3028 29.6921C52.1039 29.427 51.9506 29.2074 51.8429 29.0334H51.7186V34.0795H50.252ZM51.6938 25.7273C51.6938 26.4482 51.7994 27.0841 52.0107 27.6351C52.222 28.182 52.5306 28.6108 52.9367 28.9215C53.3427 29.2281 53.8398 29.3814 54.4281 29.3814C55.0413 29.3814 55.553 29.2198 55.9631 28.8967C56.3774 28.5694 56.6881 28.1302 56.8953 27.5792C57.1066 27.024 57.2122 26.4067 57.2122 25.7273C57.2122 25.0561 57.1087 24.4512 56.9015 23.9126C56.6985 23.3699 56.3898 22.9411 55.9755 22.6262C55.5654 22.3072 55.0496 22.1477 54.4281 22.1477C53.8315 22.1477 53.3302 22.2989 52.9242 22.6014C52.5182 22.8997 52.2116 23.3181 52.0045 23.8567C51.7973 24.3912 51.6938 25.0147 51.6938 25.7273ZM64.5439 30.6989C63.6822 30.6989 62.9261 30.4938 62.2756 30.0836C61.6293 29.6735 61.1239 29.0997 60.7593 28.3622C60.3988 27.6248 60.2186 26.763 60.2186 25.777C60.2186 24.7827 60.3988 23.9147 60.7593 23.1731C61.1239 22.4315 61.6293 21.8556 62.2756 21.4455C62.9261 21.0353 63.6822 20.8303 64.5439 20.8303C65.4056 20.8303 66.1597 21.0353 66.806 21.4455C67.4564 21.8556 67.9619 22.4315 68.3223 23.1731C68.6869 23.9147 68.8692 24.7827 68.8692 25.777C68.8692 26.763 68.6869 27.6248 68.3223 28.3622C67.9619 29.0997 67.4564 29.6735 66.806 30.0836C66.1597 30.4938 65.4056 30.6989 64.5439 30.6989ZM64.5439 29.3814C65.1985 29.3814 65.7371 29.2136 66.1597 28.878C66.5823 28.5424 66.895 28.1012 67.0981 27.5543C67.3011 27.0075 67.4026 26.415 67.4026 25.777C67.4026 25.139 67.3011 24.5444 67.0981 23.9934C66.895 23.4424 66.5823 22.997 66.1597 22.6573C65.7371 22.3176 65.1985 22.1477 64.5439 22.1477C63.8893 22.1477 63.3507 22.3176 62.9281 22.6573C62.5055 22.997 62.1928 23.4424 61.9897 23.9934C61.7867 24.5444 61.6852 25.139 61.6852 25.777C61.6852 26.415 61.7867 27.0075 61.9897 27.5543C62.1928 28.1012 62.5055 28.5424 62.9281 28.878C63.3507 29.2136 63.8893 29.3814 64.5439 29.3814ZM75.0092 20.9545V22.1974H70.0625V20.9545H75.0092ZM71.5043 18.6676H72.9709V27.7656C72.9709 28.1799 73.031 28.4906 73.1511 28.6978C73.2754 28.9008 73.4328 29.0375 73.6234 29.108C73.8181 29.1742 74.0232 29.2074 74.2386 29.2074C74.4002 29.2074 74.5328 29.1991 74.6364 29.1825C74.7399 29.1618 74.8228 29.1452 74.8849 29.1328L75.1832 30.4503C75.0838 30.4876 74.945 30.5249 74.7669 30.5621C74.5887 30.6036 74.3629 30.6243 74.0895 30.6243C73.6752 30.6243 73.2692 30.5352 72.8714 30.3571C72.4779 30.1789 72.1506 29.9076 71.8896 29.543C71.6327 29.1784 71.5043 28.7185 71.5043 28.1634V18.6676ZM76.9654 30.5V20.9545H78.432V30.5H76.9654ZM77.7111 19.3636C77.4252 19.3636 77.1787 19.2663 76.9716 19.0716C76.7686 18.8768 76.6671 18.6428 76.6671 18.3693C76.6671 18.0959 76.7686 17.8618 76.9716 17.6671C77.1787 17.4724 77.4252 17.375 77.7111 17.375C77.997 17.375 78.2414 17.4724 78.4444 17.6671C78.6516 17.8618 78.7551 18.0959 78.7551 18.3693C78.7551 18.6428 78.6516 18.8768 78.4444 19.0716C78.2414 19.2663 77.997 19.3636 77.7111 19.3636ZM85.1189 20.9545V22.1974H79.9733V20.9545H85.1189ZM81.5145 30.5V19.6371C81.5145 19.0902 81.6429 18.6345 81.8998 18.2699C82.1567 17.9053 82.4902 17.6319 82.9003 17.4496C83.3105 17.2673 83.7434 17.1761 84.1992 17.1761C84.5596 17.1761 84.8538 17.2051 85.0816 17.2631C85.3095 17.3211 85.4794 17.375 85.5912 17.4247L85.1686 18.6925C85.0941 18.6676 84.9905 18.6365 84.8579 18.5993C84.7295 18.562 84.5596 18.5433 84.3483 18.5433C83.8636 18.5433 83.5135 18.6655 83.2981 18.91C83.0868 19.1544 82.9811 19.5128 82.9811 19.9851V30.5H81.5145ZM87.869 34.0795C87.6204 34.0795 87.3987 34.0588 87.204 34.0174C87.0093 33.9801 86.8746 33.9428 86.8001 33.9055L87.1729 32.6129C87.5292 32.7041 87.8441 32.7372 88.1175 32.7124C88.391 32.6875 88.6333 32.5653 88.8446 32.3457C89.0601 32.1303 89.2569 31.7802 89.435 31.2955L89.7085 30.5497L86.1786 20.9545H87.7695L90.4045 28.5611H90.5039L93.1388 20.9545H94.7298L90.6779 31.892C90.4956 32.3851 90.2698 32.7931 90.0005 33.1163C89.7312 33.4436 89.4184 33.686 89.0621 33.8434C88.71 34.0008 88.3123 34.0795 87.869 34.0795Z" fill="white"/>
<rect x="0.5" y="0.5" width="105" height="39" rx="4.5" stroke="#A6A6A6"/>
</svg>

<svg xmlns="http://www.w3.org/2000/svg" width="106" height="40" fill="none" viewBox="0 0 106 40">
  <rect width="105" height="39" x=".5" y=".5" fill="#000" rx="4.5"/>
  <rect width="105" height="39" x=".5" y=".5" stroke="#A6A6A6" rx="4.5"/>
  <path fill="#1ED760" fill-rule="evenodd" d="M20 32c6.627 0 12-5.373 12-12S26.627 8 20 8 8 13.373 8 20s5.373 12 12 12Z" clip-rule="evenodd"/>
  <path fill="#181413" fill-rule="evenodd" d="M13.6 22.942c4.509-1.03 8.455-.618 11.655 1.338a.749.749 0 0 1-.78 1.277c-2.78-1.7-6.302-2.125-10.542-1.156a.748.748 0 1 1-.333-1.46Zm-.416-3.782c4.328-1.313 9.775-.682 13.48 1.595a.935.935 0 1 1-.98 1.593c-3.223-1.982-8.112-2.566-11.957-1.398a.935.935 0 1 1-.543-1.79Zm7.084-4.73c2.798.224 5.7.928 7.976 2.28a1.121 1.121 0 1 1-1.145 1.927c-1.885-1.119-4.42-1.765-7.01-1.972-2.587-.208-5.111.032-6.932.584a1.12 1.12 0 1 1-.651-2.145c2.145-.651 4.96-.899 7.762-.674Z" clip-rule="evenodd"/>
  <path fill="#fff" d="M39.749 14.5V8.318h.748v5.518h2.874v.664h-3.622Zm4.684 0V9.864h.713V14.5h-.713Zm.362-5.41a.506.506 0 0 1-.359-.141.456.456 0 0 1-.148-.341c0-.133.05-.247.148-.341.1-.095.22-.142.36-.142.138 0 .257.047.356.142.1.094.15.208.15.341 0 .133-.05.246-.15.341a.496.496 0 0 1-.357.142Zm4.94 1.812-.64.181c-.04-.107-.1-.21-.179-.31a.865.865 0 0 0-.313-.254 1.14 1.14 0 0 0-.51-.1c-.284 0-.52.065-.71.196-.187.129-.28.293-.28.492a.51.51 0 0 0 .192.42c.13.102.33.188.604.256l.688.17c.415.1.724.254.927.461.203.206.305.47.305.794 0 .266-.077.503-.23.713-.15.209-.362.374-.633.495a2.33 2.33 0 0 1-.948.18c-.473 0-.864-.102-1.174-.307-.31-.205-.506-.505-.589-.9l.676-.169c.065.25.186.437.365.562.182.124.418.187.71.187.332 0 .595-.07.79-.211.198-.143.296-.314.296-.514a.54.54 0 0 0-.169-.404c-.112-.11-.285-.193-.519-.248l-.773-.18c-.424-.101-.736-.257-.935-.469a1.133 1.133 0 0 1-.296-.8c0-.261.073-.493.22-.694a1.5 1.5 0 0 1 .607-.474 2.13 2.13 0 0 1 .875-.172c.46 0 .82.1 1.081.302.264.201.45.467.561.797Zm3.173-1.038v.603h-2.403v-.603h2.403Zm-1.703-1.111h.712v4.419c0 .201.03.352.088.453.06.098.137.165.23.199a.92.92 0 0 0 .298.048c.079 0 .143-.004.194-.012l.12-.024.145.64a1.491 1.491 0 0 1-.531.085c-.201 0-.399-.044-.592-.13a1.177 1.177 0 0 1-.477-.396c-.125-.177-.187-.4-.187-.67V8.753Zm4.668 5.844c-.447 0-.832-.099-1.156-.296a1.99 1.99 0 0 1-.745-.833c-.174-.358-.26-.775-.26-1.25s.086-.893.26-1.256c.175-.364.418-.648.73-.85.314-.206.68-.309 1.099-.309.241 0 .48.04.715.121.236.08.45.211.643.392.193.18.347.417.462.713.115.296.172.66.172 1.092v.302h-3.574v-.616h2.85a1.52 1.52 0 0 0-.157-.7 1.183 1.183 0 0 0-.441-.486 1.234 1.234 0 0 0-.67-.178c-.284 0-.53.07-.737.212a1.39 1.39 0 0 0-.474.543c-.11.223-.166.463-.166.718v.41c0 .35.06.648.181.891.123.242.293.426.51.553.218.124.47.187.758.187.187 0 .356-.027.507-.079.153-.054.285-.135.396-.241.11-.109.196-.244.256-.405l.689.193a1.526 1.526 0 0 1-.366.616 1.78 1.78 0 0 1-.634.41 2.35 2.35 0 0 1-.848.146Zm3.716-2.886V14.5h-.712V9.864h.688v.724h.06a1.33 1.33 0 0 1 .495-.567c.222-.145.507-.218.858-.218.313 0 .588.065.823.193.236.127.42.32.55.58.13.258.196.584.196.978V14.5h-.712v-2.898c0-.364-.095-.648-.284-.85-.19-.206-.449-.309-.779-.309-.227 0-.43.05-.61.148a1.058 1.058 0 0 0-.42.432 1.43 1.43 0 0 0-.153.688Zm8.534 2.886c-.419 0-.786-.1-1.102-.3a2.018 2.018 0 0 1-.736-.835c-.175-.358-.263-.777-.263-1.256 0-.483.088-.905.263-1.265.177-.36.422-.64.736-.839.316-.2.683-.299 1.102-.299.418 0 .785.1 1.099.3.316.198.561.478.736.838.177.36.266.782.266 1.265 0 .479-.089.898-.266 1.256-.175.358-.42.636-.736.836a2.01 2.01 0 0 1-1.1.299Zm0-.64c.318 0 .58-.082.785-.245a1.44 1.44 0 0 0 .456-.643 2.47 2.47 0 0 0 .147-.863c0-.31-.049-.599-.147-.866a1.46 1.46 0 0 0-.456-.65c-.206-.164-.467-.247-.785-.247s-.58.083-.785.248a1.46 1.46 0 0 0-.456.649 2.487 2.487 0 0 0-.148.866c0 .31.05.598.148.863.099.266.25.48.456.643.205.163.467.245.785.245Zm3.9-2.246V14.5h-.712V9.864H72v.724h.06c.11-.235.274-.424.496-.567.221-.145.507-.218.857-.218.314 0 .589.065.824.193a1.3 1.3 0 0 1 .55.58c.13.258.196.584.196.978V14.5h-.713v-2.898c0-.364-.094-.648-.284-.85-.189-.206-.448-.309-.778-.309-.228 0-.43.05-.61.148a1.059 1.059 0 0 0-.42.432 1.43 1.43 0 0 0-.154.688Zm-25.522 9.243a1.95 1.95 0 0 0-.907-1.466c-.53-.348-1.18-.522-1.951-.522-.564 0-1.057.091-1.48.273-.418.183-.745.433-.981.752a1.802 1.802 0 0 0-.348 1.088c0 .34.08.632.242.876.166.24.377.441.634.603.257.157.526.288.808.391.282.1.54.18.777.243l1.292.348c.332.087.7.207 1.106.36.41.154.802.363 1.175.628.377.26.688.597.932 1.007.245.41.367.913.367 1.51a3.35 3.35 0 0 1-.54 1.864c-.357.555-.88.997-1.567 1.324-.683.327-1.514.49-2.492.49-.911 0-1.7-.146-2.367-.44-.663-.295-1.185-.705-1.567-1.231-.377-.526-.59-1.137-.64-1.833h1.591c.042.48.203.878.485 1.193.286.31.646.543 1.081.696.44.15.912.224 1.417.224a4.17 4.17 0 0 0 1.585-.286c.468-.195.839-.464 1.112-.808a1.91 1.91 0 0 0 .41-1.218c0-.423-.118-.767-.354-1.032a2.6 2.6 0 0 0-.932-.646 9.782 9.782 0 0 0-1.25-.435l-1.565-.448c-.994-.285-1.782-.693-2.362-1.224-.58-.53-.87-1.224-.87-2.082 0-.712.193-1.334.578-1.864.39-.534.912-.949 1.566-1.243.66-.298 1.394-.447 2.207-.447.82 0 1.549.147 2.187.44.638.291 1.143.689 1.516 1.194.377.506.576 1.08.597 1.721H46.5Zm3.751 13.126V20.955h1.417v1.516h.174c.108-.166.257-.377.447-.634.195-.261.473-.493.833-.696.365-.207.858-.31 1.48-.31.803 0 1.511.2 2.124.602.614.402 1.092.972 1.436 1.709.344.738.516 1.608.516 2.61 0 1.011-.172 1.887-.516 2.629-.344.737-.82 1.309-1.43 1.715-.608.402-1.31.603-2.106.603-.613 0-1.104-.102-1.473-.305-.369-.207-.652-.44-.851-.702a9.38 9.38 0 0 1-.46-.659h-.124v5.047h-1.467Zm1.442-8.353c0 .721.105 1.357.317 1.908.211.547.52.976.926 1.287.406.306.903.46 1.491.46.613 0 1.125-.162 1.535-.485.414-.328.725-.767.932-1.318a5.17 5.17 0 0 0 .317-1.852c0-.67-.103-1.276-.31-1.814-.203-.543-.512-.972-.927-1.287-.41-.319-.925-.478-1.547-.478-.596 0-1.098.15-1.504.453-.406.299-.712.717-.92 1.256-.207.534-.31 1.158-.31 1.87Zm12.85 4.972c-.862 0-1.618-.205-2.268-.615-.647-.41-1.152-.984-1.517-1.722-.36-.737-.54-1.599-.54-2.585 0-.994.18-1.862.54-2.604.365-.741.87-1.317 1.517-1.727.65-.41 1.406-.616 2.268-.616.862 0 1.616.205 2.262.616.65.41 1.156.985 1.516 1.727.365.742.547 1.61.547 2.604 0 .986-.182 1.848-.547 2.585-.36.738-.866 1.312-1.516 1.722-.646.41-1.4.615-2.262.615Zm0-1.318c.654 0 1.193-.167 1.616-.503.422-.336.735-.777.938-1.324a5.063 5.063 0 0 0 .305-1.777 5.12 5.12 0 0 0-.305-1.784 3.007 3.007 0 0 0-.938-1.336c-.423-.34-.962-.51-1.616-.51-.655 0-1.193.17-1.616.51-.422.34-.735.785-.938 1.336a5.12 5.12 0 0 0-.305 1.784c0 .638.102 1.23.305 1.777.203.547.515.988.938 1.324.423.336.961.503 1.616.503Zm10.465-8.427v1.243h-4.947v-1.242h4.947Zm-3.505-2.286h1.467v9.098c0 .414.06.725.18.932.124.203.282.34.472.41.195.066.4.1.616.1.161 0 .294-.009.397-.025l.249-.05.298 1.317c-.1.038-.238.075-.416.112a3.062 3.062 0 0 1-.677.062 2.96 2.96 0 0 1-1.219-.267 2.42 2.42 0 0 1-.981-.814c-.257-.365-.386-.825-.386-1.38v-9.495ZM76.965 30.5v-9.546h1.467V30.5h-1.467Zm.746-11.136c-.286 0-.532-.098-.74-.292a.939.939 0 0 1-.304-.703.94.94 0 0 1 .305-.702 1.04 1.04 0 0 1 .74-.292c.285 0 .53.097.732.292a.93.93 0 0 1 .311.702.93.93 0 0 1-.31.703 1.021 1.021 0 0 1-.734.292Zm7.408 1.59v1.243h-5.146v-1.242h5.146ZM81.514 30.5V19.637c0-.547.129-1.003.386-1.367.257-.365.59-.638 1-.82.41-.183.843-.274 1.3-.274.36 0 .654.03.882.087.228.058.397.112.51.162l-.423 1.267a7.008 7.008 0 0 0-.311-.093 1.883 1.883 0 0 0-.51-.056c-.484 0-.835.123-1.05.367-.211.244-.317.603-.317 1.075V30.5h-1.466Zm6.355 3.58a3.17 3.17 0 0 1-.665-.063 1.753 1.753 0 0 1-.404-.111l.373-1.293c.356.091.671.124.945.1.273-.026.515-.148.727-.367.215-.216.412-.566.59-1.05l.273-.746-3.53-9.596h1.591l2.635 7.607h.1l2.635-7.607h1.59l-4.051 10.938c-.182.493-.408.901-.677 1.224-.27.328-.583.57-.939.727-.352.158-.75.236-1.193.236Z"/>
</svg>
